icons/svg/seamark_big/topmark_vertical_black_2conesup_big.svg

<?xml version="1.0" encoding="UTF-8" standalone="no"?>
<svg
   xmlns:dc="http://purl.org/dc/elements/1.1/"
   xmlns:cc="http://creativecommons.org/ns#"
   xmlns:rdf="http://www.w3.org/1999/02/22-rdf-syntax-ns#"
   xmlns:svg="http://www.w3.org/2000/svg"
   xmlns="http://www.w3.org/2000/svg"
   xmlns:sodipodi="http://sodipodi.sourceforge.net/DTD/sodipodi-0.dtd"
   xmlns:inkscape="http://www.inkscape.org/namespaces/inkscape"
   width="1060"
   height="1060"
   id="svg2"
   version="1.1"
   inkscape:version="0.48.4 r9939"
   sodipodi:docname="topmark_vertical_black_2spheres_big.svg">
  <defs
     id="defs13">
    <inkscape:path-effect
       effect="gears"
       id="path-effect3774"
       is_visible="true"
       teeth="6"
       phi="-1.2" />
    <inkscape:path-effect
       effect="bend_path"
       id="path-effect3772"
       is_visible="false"
       bendpath="m 95.790098,316.51174 c 144.429032,-206.42506 223.313032,-11.7428 339.548092,0"
       prop_scale="1.19"
       scale_y_rel="false"
       vertical="false"
       bendpath-nodetypes="cc" />
  </defs>
  <sodipodi:namedview
     pagecolor="#ffffff"
     bordercolor="#666666"
     borderopacity="1"
     objecttolerance="10"
     gridtolerance="10"
     guidetolerance="10"
     inkscape:pageopacity="0"
     inkscape:pageshadow="2"
     inkscape:window-width="1920"
     inkscape:window-height="1004"
     id="namedview11"
     showgrid="false"
     inkscape:zoom="0.57543862"
     inkscape:cx="454.78328"
     inkscape:cy="699.45075"
     inkscape:window-x="1680"
     inkscape:window-y="0"
     inkscape:window-maximized="1"
     inkscape:current-layer="svg2" />
  <metadata
     id="metadata2975">image/svg+xmlen<rdf:RDF>
  <cc:Work
     rdf:about="">
    <dc:format>image/svg+xml</dc:format>
    <dc:type
       rdf:resource="http://purl.org/dc/dcmitype/StillImage" />
    <dc:title></dc:title>
  </cc:Work>
</rdf:RDF>
</metadata>
  <path
     style="opacity:0.43913042;color:#000000;fill:#acd8f3;fill-opacity:1;fill-rule:nonzero;stroke:#a35151;stroke-width:0;stroke-linecap:round;stroke-linejoin:miter;stroke-miterlimit:4;stroke-opacity:1;stroke-dashoffset:0;marker:none;visibility:visible;display:inline;overflow:visible;enable-background:accumulate"
     d="m 532.74964,56.504539 c -6.00584,-0.218321 -12.01971,2.986601 -15.1875,8.09375 l -57.09375,92.250001 c -3.19215,5.15985 -3.35076,12.05307 -0.39931,17.35428 2.95145,5.30121 8.89437,8.7974 14.96181,8.80197 l 18.6875,0 -35,56.53125 c -3.19215,5.15985 -3.35076,12.05307 -0.39931,17.35428 2.95145,5.30121 8.89437,8.7974 14.96181,8.80197 l 27.125,0 0,251.03125 c 0.004,4.4823 1.85047,8.9356 5.01993,12.10507 3.16947,3.16946 7.62277,5.01623 12.10507,5.01993 l 25,0 c 4.4823,-0.004 8.9356,-1.85047 12.10507,-5.01993 3.16946,-3.16947 5.01623,-7.62277 5.01993,-12.10507 l 0,-251.03125 25.3125,0 c 6.00639,-0.005 11.89394,-3.42694 14.87122,-8.6435 2.97729,-5.21656 2.9293,-12.02617 -0.12122,-17.20025 l -33.65625,-56.84375 20.65625,0 c 6.00639,-0.005 11.89394,-3.42694 14.87122,-8.6435 2.97729,-5.21656 2.9293,-12.02617 -0.12122,-17.20025 L 546.87464,64.910789 c -2.90775,-4.919165 -8.41456,-8.196446 -14.125,-8.40625 z"
     id="path3147"
     inkscape:connector-curvature="0"
     sodipodi:nodetypes="cccscccscccsccscccscccsccc" />
  <path
     inkscape:connector-curvature="0"
     style="fill:#000000;fill-opacity:1;stroke:none"
     d="m 474.164,166.03546 111.67002,0.004 -54.58138,-92.238191"
     id="path3822-6-6-6"
     sodipodi:nodetypes="ccc"
     inkscape:transform-center-x="-2.984648"
     inkscape:transform-center-y="-477.78027" />
  <path
     style="color:#000000;fill:none;stroke:#000000;stroke-width:23.35377502;stroke-linecap:butt;stroke-linejoin:miter;stroke-miterlimit:4;stroke-opacity:1;stroke-dasharray:none;stroke-dashoffset:0;marker:none;visibility:visible;display:inline;overflow:visible;enable-background:accumulate"
     d="m 529.99901,514.5173 0,-388.96909"
     id="path3065"
     inkscape:connector-curvature="0" />
  <path
     inkscape:connector-curvature="0"
     style="fill:#000000;fill-opacity:1;stroke:none"
     d="m 474.164,248.73123 111.67002,0.004 -54.5814,-92.23819"
     id="path3822-6-6"
     sodipodi:nodetypes="ccc" />
</svg>

<svg width="1060" height="1060" viewBox="0 0 1060 1060" fill="none" xmlns="http://www.w3.org/2000/svg">
<path opacity="0.43913" d="M532.749 56.5046C526.744 56.2863 520.73 59.4912 517.562 64.5984L460.468 156.848C457.276 162.008 457.117 168.901 460.069 174.203C463.02 179.504 468.963 183 475.031 183.005H493.718L458.718 239.536C455.526 244.696 455.367 251.589 458.319 256.89C461.27 262.191 467.213 265.688 473.281 265.692H500.406V516.723C500.41 521.206 502.256 525.659 505.426 528.828C508.595 531.998 513.048 533.845 517.531 533.848H542.531C547.013 533.844 551.466 531.998 554.636 528.828C557.805 525.659 559.652 521.206 559.656 516.723V265.692H584.968C590.975 265.687 596.862 262.265 599.839 257.049C602.817 251.832 602.769 245.022 599.718 239.848L566.062 183.005H586.718C592.725 183 598.612 179.578 601.589 174.361C604.567 169.145 604.519 162.335 601.468 157.161L546.874 64.9109C543.967 59.9917 538.46 56.7144 532.749 56.5046V56.5046Z" fill="#ACD8F3"/>
<path d="M474.164 166.035L585.834 166.039L531.253 73.8013" fill="black"/>
<path d="M529.999 514.517V125.548" stroke="black" stroke-width="23.3538"/>
<path d="M474.164 248.731L585.834 248.735L531.253 156.497" fill="black"/>
</svg>
